Newaita-dark/apps/256/maps.svg

<?xml version="1.0" encoding="UTF-8"?>
<svg xmlns="http://www.w3.org/2000/svg" xmlns:xlink="http://www.w3.org/1999/xlink" width="256pt" height="256pt" viewBox="0 0 256 256" version="1.1">
<defs>
<linearGradient id="linear0" gradientUnits="userSpaceOnUse" x1="254" y1="233.5" x2="254" y2="-168.666672" gradientTransform="matrix(0.500048,0,0,0.500048,0,107.510266)">
<stop offset="0" style="stop-color:rgb(39.215686%,70.980392%,96.470588%);stop-opacity:1;"/>
<stop offset="1" style="stop-color:rgb(56.470588%,79.215686%,97.647059%);stop-opacity:1;"/>
</linearGradient>
<linearGradient id="linear1" gradientUnits="userSpaceOnUse" x1="254" y1="233.5" x2="254" y2="254.666672" gradientTransform="matrix(0.500048,0,0,0.500048,-0.0000305205,107.510281)">
<stop offset="0" style="stop-color:rgb(0%,0%,0%);stop-opacity:0.27451;"/>
<stop offset="1" style="stop-color:rgb(0%,0%,0%);stop-opacity:0;"/>
</linearGradient>
<radialGradient id="radial0" gradientUnits="userSpaceOnUse" cx="450.908936" cy="189.579361" fx="450.908936" fy="189.579361" r="21.166656" gradientTransform="matrix(0.00000139336,-0.62506,-1.125108,-0.000000812309,424.98344,508.762661)">
<stop offset="0" style="stop-color:rgb(0%,0%,0%);stop-opacity:0.313725;"/>
<stop offset="0.222222" style="stop-color:rgb(0%,0%,0%);stop-opacity:0.27451;"/>
<stop offset="1" style="stop-color:rgb(0%,0%,0%);stop-opacity:0;"/>
</radialGradient>
<radialGradient id="radial1" gradientUnits="userSpaceOnUse" cx="450.908936" cy="189.579361" fx="450.908936" fy="189.579361" r="21.166656" gradientTransform="matrix(-0.00000139336,0.62506,1.125108,0.000000812309,-169.636162,-60.219831)">
<stop offset="0" style="stop-color:rgb(0%,0%,0%);stop-opacity:0.313725;"/>
<stop offset="0.222222" style="stop-color:rgb(0%,0%,0%);stop-opacity:0.27451;"/>
<stop offset="1" style="stop-color:rgb(0%,0%,0%);stop-opacity:0;"/>
</radialGradient>
<radialGradient id="radial2" gradientUnits="userSpaceOnUse" cx="450.908936" cy="189.579361" fx="450.908936" fy="189.579361" r="21.166656" gradientTransform="matrix(-0.00000139336,-0.62506,1.125108,-0.000000812309,-169.636162,508.762661)">
<stop offset="0" style="stop-color:rgb(0%,0%,0%);stop-opacity:0.313725;"/>
<stop offset="0.222222" style="stop-color:rgb(0%,0%,0%);stop-opacity:0.27451;"/>
<stop offset="1" style="stop-color:rgb(0%,0%,0%);stop-opacity:0;"/>
</radialGradient>
<radialGradient id="radial3" gradientUnits="userSpaceOnUse" cx="450.908936" cy="189.579361" fx="450.908936" fy="189.579361" r="21.166656" gradientTransform="matrix(0.00000139336,0.62506,-1.125108,0.000000812309,424.983428,-60.219835)">
<stop offset="0" style="stop-color:rgb(0%,0%,0%);stop-opacity:0.313725;"/>
<stop offset="0.222222" style="stop-color:rgb(0%,0%,0%);stop-opacity:0.27451;"/>
<stop offset="1" style="stop-color:rgb(0%,0%,0%);stop-opacity:0;"/>
</radialGradient>
<linearGradient id="linear2" gradientUnits="userSpaceOnUse" x1="306.916656" y1="233.5" x2="317.5" y2="-147.5" gradientTransform="matrix(0.500048,0,0,0.500048,0,107.510263)">
<stop offset="0" style="stop-color:rgb(29.803922%,68.627451%,31.372549%);stop-opacity:1;"/>
<stop offset="1" style="stop-color:rgb(40%,73.333333%,41.568627%);stop-opacity:1;"/>
</linearGradient>
<linearGradient id="linear3" gradientUnits="userSpaceOnUse" x1="960" y1="1695.118164" x2="960" y2="175.118118" >
<stop offset="0" style="stop-color:rgb(84.313725%,80%,78.431373%);stop-opacity:1;"/>
<stop offset="1" style="stop-color:rgb(93.72549%,92.156863%,91.372549%);stop-opacity:1;"/>
</linearGradient>
<linearGradient id="linear4" gradientUnits="userSpaceOnUse" x1="1240" y1="495.118103" x2="1240" y2="1375.118164" gradientTransform="matrix(0.264583,0,0,0.264583,0,-257.333099)">
<stop offset="0" style="stop-color:rgb(93.72549%,32.54902%,31.372549%);stop-opacity:1;"/>
<stop offset="1" style="stop-color:rgb(95.686275%,26.27451%,21.176471%);stop-opacity:1;"/>
</linearGradient>
</defs>
<g id="surface1">
<path style=" stroke:none;fill-rule:nonzero;fill:url(#linear0);" d="M 29.105469 23.167969 L 224.917969 23.167969 C 229.300781 23.167969 232.855469 26.722656 232.855469 31.105469 L 232.855469 216.332031 C 232.855469 220.71875 229.300781 224.269531 224.917969 224.269531 L 29.105469 224.269531 C 24.722656 224.269531 21.167969 220.71875 21.167969 216.332031 L 21.167969 31.105469 C 21.167969 26.722656 24.722656 23.167969 29.105469 23.167969 Z M 29.105469 23.167969 "/>
<path style=" stroke:none;fill-rule:nonzero;fill:url(#linear1);" d="M 41.015625 224.269531 L 214.332031 224.269531 L 214.332031 234.855469 L 41.015625 234.855469 Z M 41.015625 224.269531 "/>
<path style=" stroke:none;fill-rule:nonzero;fill:url(#radial0);" d="M 214.332031 224.269531 L 235.5 224.269531 L 235.5 213.6875 L 214.332031 213.6875 Z M 214.332031 224.269531 "/>
<path style=" stroke:none;fill-rule:nonzero;fill:url(#radial1);" d="M 41.015625 224.269531 L 19.84375 224.269531 L 19.84375 234.855469 L 41.015625 234.855469 Z M 41.015625 224.269531 "/>
<path style=" stroke:none;fill-rule:nonzero;fill:url(#radial2);" d="M 41.015625 224.269531 L 19.84375 224.269531 L 19.84375 213.6875 L 41.015625 213.6875 Z M 41.015625 224.269531 "/>
<path style=" stroke:none;fill-rule:nonzero;fill:url(#radial3);" d="M 214.332031 224.269531 L 235.5 224.269531 L 235.5 234.855469 L 214.332031 234.855469 Z M 214.332031 224.269531 "/>
<path style=" stroke:none;fill-rule:nonzero;fill:url(#linear2);" d="M 232.855469 33.753906 L 141.84375 122.304688 L 232.855469 208.394531 Z M 125.746094 137.96875 L 37.046875 224.269531 L 216.980469 224.269531 Z M 125.746094 137.96875 "/>
<path style=" stroke:none;fill-rule:nonzero;fill:rgb(0%,0%,0%);fill-opacity:0.196078;" d="M 31.753906 224.269531 C 25.890625 224.269531 21.167969 219.550781 21.167969 213.6875 L 21.167969 212.363281 C 21.167969 218.226562 25.890625 222.949219 31.753906 222.949219 L 222.269531 222.949219 C 228.136719 222.949219 232.855469 218.226562 232.855469 212.363281 L 232.855469 213.6875 C 232.855469 219.550781 228.136719 224.269531 222.269531 224.269531 Z M 31.753906 224.269531 "/>
<path style="fill-rule:evenodd;fill:url(#linear3);stroke-width:11.338583;stroke-linecap:butt;stroke-linejoin:miter;stroke:rgb(12.941177%,12.941177%,12.941177%);stroke-opacity:1;stroke-miterlimit:4;" d="M 1640.010796 175.11124 L 159.994572 1575.115415 L 159.994572 1635.109689 C 159.994572 1668.354547 186.773512 1695.103963 219.988846 1695.103963 L 280.012645 1695.103963 L 950.430942 1042.813857 L 1640.010796 1695.103963 L 1700.00507 1695.103963 C 1733.249928 1695.103963 1759.999344 1668.354547 1759.999344 1635.109689 L 1759.999344 1575.115415 L 1072.1024 924.419645 L 1759.999344 255.123288 L 1759.999344 235.105514 C 1759.999344 201.89018 1733.249928 175.11124 1700.00507 175.11124 Z M 1640.010796 175.11124 " transform="matrix(0.132304,0,0,0.132304,0,0)"/>
<path style=" stroke:none;fill-rule:nonzero;fill:rgb(100%,100%,100%);fill-opacity:0.643137;" d="M 31.753906 23.167969 C 25.890625 23.167969 21.167969 27.890625 21.167969 33.753906 L 21.167969 35.078125 C 21.167969 29.210938 25.890625 24.492188 31.753906 24.492188 L 222.269531 24.492188 C 228.136719 24.492188 232.855469 29.210938 232.855469 35.078125 L 232.855469 33.753906 C 232.855469 27.890625 228.136719 23.167969 222.269531 23.167969 Z M 31.753906 23.167969 "/>
<path style=" stroke:none;fill-rule:nonzero;fill:rgb(12.941177%,12.941177%,12.941177%);fill-opacity:1;" d="M 29.105469 22.417969 C 24.308594 22.417969 20.417969 26.308594 20.417969 31.109375 L 20.417969 216.332031 C 20.417969 221.132812 24.308594 225.023438 29.105469 225.023438 L 224.917969 225.023438 C 229.71875 225.023438 233.605469 221.132812 233.605469 216.332031 L 233.605469 31.109375 C 233.605469 26.308594 229.71875 22.417969 224.917969 22.417969 Z M 29.105469 23.917969 L 224.917969 23.917969 C 228.914062 23.917969 232.105469 27.113281 232.105469 31.109375 L 232.105469 216.332031 C 232.105469 220.328125 228.914062 223.519531 224.917969 223.519531 L 29.105469 223.519531 C 25.113281 223.519531 21.917969 220.328125 21.917969 216.332031 L 21.917969 31.109375 C 21.917969 27.113281 25.113281 23.917969 29.105469 23.917969 Z M 29.105469 23.917969 "/>
<path style="fill-rule:nonzero;fill:url(#linear4);stroke-width:3;stroke-linecap:round;stroke-linejoin:miter;stroke:rgb(12.941177%,12.941177%,12.941177%);stroke-opacity:1;stroke-miterlimit:4;" d="M 328.085857 -126.336592 C 287.042901 -126.336592 253.999182 -93.292872 253.999182 -52.249917 C 253.999182 16.540389 306.916003 85.330695 328.085857 106.500548 C 343.959341 85.330695 402.16472 16.540389 402.16472 -52.249917 C 402.16472 -93.292872 369.128812 -126.336592 328.085857 -126.336592 Z M 328.085857 -83.996885 C 345.670115 -83.996885 359.832825 -69.841987 359.832825 -52.249917 C 359.832825 -34.657847 345.670115 -20.502949 328.085857 -20.502949 C 310.493787 -20.502949 296.331077 -34.657847 296.331077 -52.249917 C 296.331077 -69.841987 310.493787 -83.996885 328.085857 -83.996885 Z M 328.085857 -83.996885 " transform="matrix(0.500048,0,0,0.500048,0,107.510266)"/>
</g>
</svg>

<svg xmlns="http://www.w3.org/2000/svg" width="256pt" height="256pt" viewBox="0 0 256 256"><defs><linearGradient id="a" gradientUnits="userSpaceOnUse" x1="254" y1="233.5" x2="254" y2="-168.667" gradientTransform="matrix(.50005 0 0 .50005 0 107.51)"><stop offset="0" stop-color="#64b5f6"/><stop offset="1" stop-color="#90caf9"/></linearGradient><linearGradient id="b" gradientUnits="userSpaceOnUse" x1="254" y1="233.5" x2="254" y2="254.667" gradientTransform="matrix(.50005 0 0 .50005 0 107.51)"><stop offset="0" stop-opacity=".275"/><stop offset="1" stop-opacity="0"/></linearGradient><radialGradient id="c" gradientUnits="userSpaceOnUse" cx="450.909" cy="189.579" fx="450.909" fy="189.579" r="21.167" gradientTransform="matrix(0 -.62506 -1.1251 0 424.983 508.763)"><stop offset="0" stop-opacity=".314"/><stop offset=".222" stop-opacity=".275"/><stop offset="1" stop-opacity="0"/></radialGradient><radialGradient id="d" gradientUnits="userSpaceOnUse" cx="450.909" cy="189.579" fx="450.909" fy="189.579" r="21.167" gradientTransform="matrix(0 .62506 1.1251 0 -169.636 -60.22)"><stop offset="0" stop-opacity=".314"/><stop offset=".222" stop-opacity=".275"/><stop offset="1" stop-opacity="0"/></radialGradient><radialGradient id="e" gradientUnits="userSpaceOnUse" cx="450.909" cy="189.579" fx="450.909" fy="189.579" r="21.167" gradientTransform="matrix(0 -.62506 1.1251 0 -169.636 508.763)"><stop offset="0" stop-opacity=".314"/><stop offset=".222" stop-opacity=".275"/><stop offset="1" stop-opacity="0"/></radialGradient><radialGradient id="f" gradientUnits="userSpaceOnUse" cx="450.909" cy="189.579" fx="450.909" fy="189.579" r="21.167" gradientTransform="matrix(0 .62506 -1.1251 0 424.983 -60.22)"><stop offset="0" stop-opacity=".314"/><stop offset=".222" stop-opacity=".275"/><stop offset="1" stop-opacity="0"/></radialGradient><linearGradient id="g" gradientUnits="userSpaceOnUse" x1="306.917" y1="233.5" x2="317.5" y2="-147.5" gradientTransform="matrix(.50005 0 0 .50005 0 107.51)"><stop offset="0" stop-color="#4caf50"/><stop offset="1" stop-color="#66bb6a"/></linearGradient><linearGradient id="h" gradientUnits="userSpaceOnUse" x1="960" y1="1695.118" x2="960" y2="175.118"><stop offset="0" stop-color="#d7ccc8"/><stop offset="1" stop-color="#efebe9"/></linearGradient><linearGradient id="i" gradientUnits="userSpaceOnUse" x1="1240" y1="495.118" x2="1240" y2="1375.118" gradientTransform="matrix(.26458 0 0 .26458 0 -257.333)"><stop offset="0" stop-color="#ef5350"/><stop offset="1" stop-color="#f44336"/></linearGradient></defs><path d="M29.105 23.168h195.813a7.939 7.939 0 0 1 7.937 7.937v185.227a7.936 7.936 0 0 1-7.937 7.938H29.105a7.936 7.936 0 0 1-7.937-7.938V31.105a7.939 7.939 0 0 1 7.937-7.937zm0 0" fill="url(#a)"/><path d="M41.016 224.27h173.316v10.585H41.016zm0 0" fill="url(#b)"/><path d="M214.332 224.27H235.5v-10.583h-21.168zm0 0" fill="url(#c)"/><path d="M41.016 224.27H19.844v10.585h21.172zm0 0" fill="url(#d)"/><path d="M41.016 224.27H19.844v-10.583h21.172zm0 0" fill="url(#e)"/><path d="M214.332 224.27H235.5v10.585h-21.168zm0 0" fill="url(#f)"/><path d="M232.855 33.754l-91.011 88.55 91.011 86.09zM125.746 137.969l-88.7 86.3H216.98zm0 0" fill="url(#g)"/><path d="M31.754 224.27a10.561 10.561 0 0 1-10.586-10.583v-1.324a10.564 10.564 0 0 0 10.586 10.586H222.27a10.562 10.562 0 0 0 10.585-10.586v1.325a10.559 10.559 0 0 1-10.585 10.582zm0 0" fill-opacity=".196"/><path d="M1640.01 175.111L159.996 1575.115v59.995c0 33.245 26.779 59.994 59.994 59.994h60.024l670.418-652.29 689.58 652.29h59.994c33.245 0 59.994-26.75 59.994-59.994v-59.995L1072.102 924.42 1760 255.123v-20.017c0-33.216-26.75-59.995-59.994-59.995zm0 0" transform="scale(.1323)" fill-rule="evenodd" fill="url(#h)" stroke-width="11.339" stroke="#212121"/><path d="M31.754 23.168a10.564 10.564 0 0 0-10.586 10.586v1.324a10.562 10.562 0 0 1 10.586-10.586H222.27a10.56 10.56 0 0 1 10.585 10.586v-1.324a10.562 10.562 0 0 0-10.585-10.586zm0 0" fill="#fff" fill-opacity=".643"/><path d="M29.105 22.418c-4.796 0-8.687 3.89-8.687 8.691v185.223c0 4.8 3.89 8.691 8.687 8.691h195.813c4.8 0 8.687-3.89 8.687-8.691V31.109c0-4.8-3.886-8.691-8.687-8.691zm0 1.5h195.813a7.157 7.157 0 0 1 7.187 7.191v185.223a7.154 7.154 0 0 1-7.187 7.188H29.105a7.156 7.156 0 0 1-7.187-7.188V31.109a7.16 7.16 0 0 1 7.187-7.191zm0 0" fill="#212121"/><path d="M328.086-126.337c-41.043 0-74.087 33.044-74.087 74.087 0 68.79 52.917 137.58 74.087 158.75 15.873-21.17 74.079-89.96 74.079-158.75 0-41.043-33.036-74.087-74.08-74.087zm0 42.34c17.584 0 31.747 14.155 31.747 31.747s-14.163 31.747-31.747 31.747c-17.592 0-31.755-14.155-31.755-31.747s14.163-31.747 31.755-31.747zm0 0" transform="matrix(.50005 0 0 .50005 0 107.51)" fill="url(#i)" stroke-width="3" stroke-linecap="round" stroke="#212121"/></svg>
